!!!!SEGMENT: pl-sa--217-a-vi-21--004_pichler-johann-melchior--salve-regina-allegro-eja-ergo.krn
!!!cenid: 17xx:1775
!!!COM: Pichler, Johann Melchior
!!!COM-rismid: pe41011479
!!!CDT: <1695/02/19-
!!!CNT: German
!!!OPR: Salve Regina
!!!OTL: Allegro - Eja ergo
!!!OMV: 004
!!!PDT:
!!!AGN: Sacred
!!!SMS-siglum: PL-SA
!!!SMS-shelfmark: 217/A VI 21
!!!SMS-shelfwork: 001-004 M
!!!SMS-variant:
!!!SMS-altvar:
!!!NIFC-rismid: 1001030015
!!!URL-scan: http://bc.bdsandomierz.pl/dlibra/publication/1573/edition/1541/content
!!!ONB-nifc: UWAGA: części Salve Regina: 1. Andante molto – Salve Regina, 2. Allegro – Vita dulcedo, 3. Adagio – Ad te clamamus, 4. Allegro – Eja ergo, 5. Adagio – Et Jesum benedictum
**kern	**fba	**kern	**dynam	**kern	**dynam	**kern	**text
*part4	*part4	*part3	*part3	*part2	*part2	*part1	*part1
*staff4	*	*staff3	*	*staff2	*	*staff1	*staff1
*I"Organo.	*	*I"Violino Secondo.	*	*I"Violino Primo.	*	*I"Canto Solo.	*
*I'org	*	*I'vl 2	*	*I'vl 1	*	*I'S	*
*ICklav	*	*ICstr	*	*ICstr	*	*ICvox	*
*Iorgan	*	*Ivioln	* 	*Ivioln	* 	*Isoprn	*
*clefF4	*	*clefG2	*	*clefG2	*	*clefC1	*
*k[]	*	*k[]	*	*k[]	*	*k[]	*
*C:	*	*C:	*	*C:	*	*C:	*
*M4/4	*	*M4/4	*	*M4/4	*	*M4/4	*
*met(c)	*	*met(c)	*	*met(c)	*	*met(c)	*
=1	=1	=1	=1	=1	=1	=1	=1
!	!	!	!	!	!	!	!
!LO:TX:a:B:t=allegro.	!	!LO:TX:a:B:t=Allegro.	!	!LO:TX:a:B:t=Allegro.	!	!LO:TX:a:B:t=allegro.	!
8C\L	.	[4cc\	.	[4cc\	.	1r	.
8D\	.	.	.	.	.	.	.
8E\	6	16cc\LL]	.	16cc\LL]	.	.	.
.	.	16ee\	.	16ee\	.	.	.
8F\J	6 5	(16dd\	.	(16dd\	.	.	.
.	.	16cc\JJ)	.	16cc\JJ)	.	.	.
8G\L	.	(16b\LL	.	(16b\LL	.	.	.
.	.	16cc\JJ)	.	16cc\JJ)	.	.	.
8A\	.	4.dd\	.	4.dd\	.	.	.
8B\	6	.	.	.	.	.	.
8G\J	.	.	.	.	.	.	.
=2	=2	=2	=2	=2	=2	=2	=2
8C\L	.	(32ee\KLL	.	(32ee\KLL	.	1r	.
.	.	16.cc\)	.	16.cc\)	.	.	.
8D\	6	(32ff\K	.	(32ff\K	.	.	.
.	.	16.dd\JJ)	.	16.dd\JJ)	.	.	.
8E\	6	(32gg\KLL	.	(32gg\KLL	.	.	.
.	.	16.ee\)	.	16.ee\)	.	.	.
8F\J	6 5	(32dd\K	.	(32dd\K	.	.	.
.	.	16.cc\JJ)	.	16.cc\JJ)	.	.	.
8G\L	3	(16b/LL	.	(16b/LL	.	.	.
.	.	16a/J	.	16a/J	.	.	.
16G\L	.	8g/J)	.	8g/J)	.	.	.
16F\JJ	.	.	.	.	.	.	.
16E\LL	6	8r	.	8r	.	.	.
16D\J	.	.	.	.	.	.	.
8C\J	.	8g/	.	8g/	.	.	.
=3	=3	=3	=3	=3	=3	=3	=3
!LO:TX:t=P:problem:mixed beam	!	!	!	!	!	!	!
8F/L	5	16a/LL	.	16a/LL	.	1r	.
.	.	16f/	.	16f/	.	.	.
8FF/	6	16e/	.	16e/	.	.	.
.	.	16d/JJ	.	16d/JJ	.	.	.
8GG/	5	16b/LL	.	16b/LL	.	.	.
.	.	16g/	.	16g/	.	.	.
8G/J	6	16f/	.	16f/	.	.	.
.	.	16e/JJ	.	16e/JJ	.	.	.
!LO:TX:t=P:problem:mixed beam	!	!	!	!	!	!	!
8A\L	5	16cc\LL	.	16cc\LL	.	.	.
.	.	16a\	.	16a\	.	.	.
8AA\	6	16g\	.	16g\	.	.	.
.	.	16f\JJ	.	16f\JJ	.	.	.
8BB\	5	16dd\LL	.	16dd\LL	.	.	.
.	.	16b\	.	16b\	.	.	.
8B\J	6	16a\	.	16a\	.	.	.
.	.	16g\JJ	.	16g\JJ	.	.	.
=4	=4	=4	=4	=4	=4	=4	=4
8c\L	3	(32ee\KLL	.	(32ee\KLL	.	1r	.
.	.	16.cc\JJ)	.	16.cc\JJ)	.	.	.
8B\	6	4dd\	.	4dd\	.	.	.
8G\	.	.	.	.	.	.	.
8B\J	#	(32ff\KLL	.	(32ff\KLL	.	.	.
.	.	16.dd\JJ)	.	16.dd\JJ)	.	.	.
8c\L	3	(32ee\KLL	.	(32ee\KLL	.	.	.
.	.	16.cc\JJ)	.	16.cc\JJ)	.	.	.
8B\	6	4dd\	.	4dd\	.	.	.
8G\	.	.	.	.	.	.	.
8B\J	.	(32gg\KLL	.	(32gg\KLL	.	.	.
.	.	16.ee\JJ)	.	16.ee\JJ)	.	.	.
=5	=5	=5	=5	=5	=5	=5	=5
!LO:TX:t=P:problem:mixed beam	!	!	!	!	!	!	!
8c\L	.	(32ee\KLL	.	(32ee\KLL	.	1r	.
.	.	16.cc\)	.	16.cc\)	.	.	.
8F\	6 5	(32aa\K	.	(32aa\K	.	.	.
.	.	16.ff\JJ)	.	16.ff\JJ)	.	.	.
8G\	4	8ee\L	.	8ee\L	.	.	.
!	!	!LO:TX:a:t=t	!	!LO:TX:a:t=t-	!	!	!
8GG\J	3	8dd\J	.	8dd\J	.	.	.
8C\L	.	4cc\	.	4cc\	.	.	.
8D\	.	.	.	.	.	.	.
8E\	6	8r	.	8r	.	.	.
8C\J	.	8g/	.	8g/	.	.	.
=6	=6	=6	=6	=6	=6	=6	=6
!LO:TX:t=P:problem:mixed beam	!	!	!	!	!	!	!
8F\L	.	(16a/LL	.	(16a/LL	.	1r	.
.	.	16f/	.	16f/	.	.	.
8F#X\	6 5	16e/	.	16e/	.	.	.
.	.	16d/JJ)	.	16d/JJ)	.	.	.
!	!	!LO:TX:t=P:problem:mixed beam	!	!LO:TX:t=P:problem:mixed beam	!	!	!
!	!	!	!	!	!	!	!
8G\	7	8G/L	.	8G/L	.	.	.
!	!	!LO:TX:a:t=t-	!	!LO:TX:a:t=t-	!	!	!
8GG\J	3	8b/J	.	8b/J	.	.	.
8c\L	.	8cc\L	.	8cc\L	.	.	.
8G\J	.	8g\J	.	8g\J	.	.	.
!	!	!	!	!LO:SIC:v:t=custos cc	!	!	!
4C/	.	4c/	.	4c/	.	.	.
!	!	!	!	!LO:LB:g=original	!	!	!
=7	=7	=7	=7	=7	=7	=7	=7
!	!	!	!LO:DY:t=pia.	!	!LO:DY:t=pia.	!	!
8C/L	.	8e/L	p	[4cc\	p	(4cc\	E-
8D/	.	8f/	.	.	.	.	.
8E/	6	8g/	.	16cc\LL]	.	16cc\LL	.
.	.	.	.	16ee\	.	16ee\JJ)	.
!	!	!LO:SIC:v:t=custos d	!	!	!	!	!
8F/J	5	8a/J	.	(16dd\	.	(16dd\LL	-ja
.	.	.	.	16cc\JJ)	.	16cc\JJ)	.
!	!	!LO:LB:g=original	!	!	!	!	!
8G\L	.	8d/L	.	16b\LL	.	(16b\LL	er-
.	.	.	.	16cc\JJ	.	16cc\JJ)	.
8A\	.	(16B/L	.	4.dd\	.	4.dd\	-go
.	.	16A/JJ)	.	.	.	.	.
!	!	!LO:TX:t=P:problem:mixed beam	!	!	!	!	!
8B\	6	8G/L	.	.	.	.	.
8G\J	.	8b/J	.	.	.	.	.
!LO:LB:g=original	!	!	!	!	!	!	!
=8	=8	=8	=8	=8	=8	=8	=8
8C\L	.	8cc\L	.	(32ee\KLL	.	(32ee\KLL	ad-
.	.	.	.	16.cc\)	.	16.cc\JJ)	.
8D\	6	8b\	.	(32ff\K	.	(32ff\KLL	-vo-
.	.	.	.	16.dd\JJ)	.	16.dd\JJ)	.
8E\	6	8a\	.	(32gg\KLL	.	(32gg\KLL	-ca-
.	.	.	.	16.ee\)	.	16.ee\JJ)	.
8F\J	6 5	8b\J	.	(32dd\K	.	(32dd\KLL	-ta
.	.	.	.	16.cc\JJ)	.	16.cc\JJ)	.
8G\L	.	8d/L	.	(16b/LL	.	(32b\KLL	nos-
.	.	.	.	.	.	16.a\JJ)	.
.	.	.	.	16a/J)	.	.	.
8A\	.	16B/L	.	[8g/J	.	4g/	-tra
.	.	16A/JJ	.	.	.	.	.
!	!	!LO:TX:t=P:problem:mixed beam	!	!LO:TX:t=P:problem:mixed beam	!	!	!
8B\	6	8G\L	.	8g\L]	.	.	.
8G\J	.	8b\J	.	(32bb\KL	.	8r	.
.	.	.	.	16.dd\JJ)	.	.	.
=9	=9	=9	=9	=9	=9	=9	=9
8c\L	3	8g/L	.	(32ee\KLL	.	8ee\	il-
.	.	.	.	16.cc\JJ)	.	.	.
!	!	!	!	!	!	!LO:SIC:v:t=custos cc	!
16B\L	6	8g/	.	4dd\	.	4.dd\	-los
16A\JJ	.	.	.	.	.	.	.
8B\L	.	8g/	.	.	.	.	.
8G\J	.	8b/J	.	(32gg\KLL	.	.	.
.	.	.	.	16.dd\JJ)	.	.	.
!LO:TX:t=P:problem:mixed beam	!	!LO:TX:t=P:problem:mixed beam	!	!	!	!	!
!	!	!	!	!	!	!LO:LB:g=original	!
.	.	.	.	.	.	(16qqdd/	.
8A\L	6	8f#X/L	.	(32cc\KLL	.	8cc\)	tu-
.	.	.	.	16.a\JJ)	.	.	.
8G\	3	8g/	.	4b\	.	4b\	-os
8AA\	.	8e/	.	.	.	.	.
8B\J	6	8dd/J	.	(32gg\KLL	.	8g/	mi-
.	.	.	.	16.dd\JJ)	.	.	.
=10	=10	=10	=10	=10	=10	=10	=10
8c\L	3	8g/L	.	(32ee\KLL	.	8ee\	-se-
.	.	.	.	16.cc\JJ)	.	.	.
16B\L	6	8g/	.	4dd\	.	(16dd\LL	-ri-
16A\JJ	.	.	.	.	.	16cc\JJ)	.
8B\L	6	8g/	.	.	.	8dd\	-cor-
8G\J	.	8b/J	.	(32gg\KLL	.	8gg\	-des
.	.	.	.	16.dd\JJ)	.	.	.
!	!	!	!	!	!	!LO:TX:a:t=t-	!
.	.	.	.	.	.	(<8qqdd/	.
8A\L	7	8b/L	.	8cc\L	.	8.cc\)	o-
8D\	7	8a/	.	8ff#X\J	.	.	.
.	.	.	.	.	.	16b\	-cu-
8G\	3	8g/	.	8gg\L	.	8b\	-los
8B\J	6	8g/J	.	8dd\J	.	8dd\	ad
=11	=11	=11	=11	=11	=11	=11	=11
!LO:TX:t=P:problem:mixed beam	!	!	!	!	!	!	!
8c\L	5	8g/	.	8ee\	.	(16ee\LL	nos
.	.	.	.	.	.	16cc\JJ)	.
8C\	6	4a/	.	8r	.	(16b\LL	con-
.	.	.	.	.	.	16a\JJ)	.
8D\	5 #	.	.	8ff#X\	.	16ff#X\LL	-ver-
.	.	.	.	.	.	16dd\	.
8d\J	6	4b/	.	8r	.	16cc\	.
.	.	.	.	.	.	16b\JJ	.
8e\L	5	.	.	8gg\	.	16gg\LL	.
.	.	.	.	.	.	16ee\	.
8E\	6	4cc\	.	8r	.	16dd\	.
.	.	.	.	.	.	16cc\JJ	.
8F\	5	.	.	8aa\	.	16aa\LL	.
.	.	.	.	.	.	16ff#\	.
8F#X\J	6	[8dd\	.	8r	.	16dd#X\	.
.	.	.	.	.	.	16cc\JJ	.
!	!	!	!	!	!	!LO:LB:g=original	!
=12	=12	=12	=12	=12	=12	=12	=12
!LO:TX:t=P:problem:mixed beam	!	!	!	!	!	!	!
8G\L	3	8dd\L]	.	8gg\	.	16b\LL	.
.	.	.	.	.	.	16cc\	.
8D\	6 5	8cc\J	.	4gg\	.	16dd\	.
.	.	.	.	.	.	16ee\JJ	.
8E\	4	8b/L	.	.	.	8b\L	.
!	!	!LO:TX:a:t=t-	!	!	!	!LO:TX:a:t=t-	!
8DD\J	#3	8a/J	.	8ff#X\	.	8a\J	.
!	!	!	!	!LO:TX:t=P:problem:mixed beam	!	!	!
8G\L	.	8g/L	.	8gg\L	.	4g/	-te
8D\J	.	8d/J	.	8d\J	.	.	.
4GG/	.	4G/	.	4G/	.	4r	.
=13	=13	=13	=13	=13	=13	=13	=13
!	!	!	!LO:DY:t=forte.	!	!LO:DY:t=forte.	!	!
8G\L	.	[4gg\	f	[4gg\	f	1r	.
8A\	.	.	.	.	.	.	.
8B\	6	16gg\LL]	.	16gg\LL]	.	.	.
.	.	16bb\	.	16bb\	.	.	.
8c\J	6 5	16aa\	.	16aa\	.	.	.
.	.	16gg\JJ	.	16gg\JJ	.	.	.
8D\L	#	(16ff#X\LL	.	(16ff#X\LL	.	.	.
.	.	16gg\JJ)	.	16gg\JJ)	.	.	.
!	!	!	!	!LO:SIC:v:t=custos bb	!	!	!
8E\	.	4.aa\	.	4.aa\	.	.	.
8F#X\	6	.	.	.	.	.	.
8D\J	.	.	.	.	.	.	.
!	!	!	!	!LO:LB:g=original	!	!	!
=14	=14	=14	=14	=14	=14	=14	=14
8G\L	.	(32bb\KLL	.	(32bb\KLL	.	1r	.
.	.	16.gg\)	.	16.gg\)	.	.	.
8A\	6	(32ccc\K	.	(32ccc\K	.	.	.
.	.	16.aa\JJ)	.	16.aa\JJ)	.	.	.
8B\	6	(32ddd\KLL	.	(32ddd\KLL	.	.	.
.	.	16.bb\)	.	16.bb\)	.	.	.
8c\J	6 5	(32aa\K	.	(32aa\K	.	.	.
.	.	16.gg\JJ)	.	16.gg\JJ)	.	.	.
8d\L	#	(16ff#X\LL	.	(16ff#X\LL	.	.	.
.	.	16ee\J)	.	16ee\J)	.	.	.
16d\L	.	8dd\J	.	8dd\J	.	.	.
16c\JJ	.	.	.	.	.	.	.
16B\LL	6	8r	.	8r	.	.	.
16A\J	.	.	.	.	.	.	.
!	!	!LO:SIC:v:t=custos ee	!	!	!	!	!
8G\J	.	8dd\	.	8dd\	.	.	.
!LO:LB:g=original	!LO:LB:g=original	!	!	!	!	!	!
=15	=15	=15	=15	=15	=15	=15	=15
8c\L	5	16ee\LL	.	16ee\LL	.	1r	.
.	.	16cc\	.	16cc\	.	.	.
8C\	6	16b\	.	16b\	.	.	.
.	.	16a\JJ	.	16a\JJ	.	.	.
8D\	5 #	16ff#X\LL	.	16ff#X\LL	.	.	.
.	.	16dd\	.	16dd\	.	.	.
8d\J	6	16cc\	.	16cc\	.	.	.
.	.	16b\JJ	.	16b\JJ	.	.	.
8e\L	5	16gg\LL	.	16gg\LL	.	.	.
.	.	16ee\	.	16ee\	.	.	.
8E\	6	16dd\	.	16dd\	.	.	.
.	.	16cc\JJ	.	16cc\JJ	.	.	.
8F#X\	5	16aa\LL	.	16aa\LL	.	.	.
.	.	16ff#X\	.	16ff#X\	.	.	.
8F#\J	6	16ee\	.	16ee\	.	.	.
.	.	16dd\JJ	.	16dd\JJ	.	.	.
=16	=16	=16	=16	=16	=16	=16	=16
!LO:TX:t=P:problem:mixed beam	!	!	!	!	!	!	!
8G\L	3	16b\LL	.	16b\LL	.	1r	.
.	.	16gg\	.	16gg\	.	.	.
8D\	6 5	16ee\	.	16ee\	.	.	.
.	.	16cc\JJ	.	16cc\JJ	.	.	.
8E\	4	8b/L	.	8b/L	.	.	.
!	!	!LO:TX:a:t=t-	!	!LO:TX:a:t=t-	!	!	!
8DD\J	#	8a/J	.	8a/J	.	.	.
8G\L	.	8g/L	.	8g/L	.	.	.
8D\J	.	8d/J	.	8d/J	.	.	.
4G\	.	4G/	.	4G/	.	.	.
=17	=17	=17	=17	=17	=17	=17	=17
!	!	!	!LO:DY:a	!	!	!	!
!	!	!	!LO:DY:t=pia.	!	!LO:DY:t=piano.	!	!
8GG/L	.	8B/L	p	[4g/	p	(4g\	E-
8AA/	.	8c/	.	.	.	.	.
8BB/	6	8d/	.	16g/LL]	.	16g\LL	.
.	.	.	.	16b/	.	16b\JJ)	.
8C/J	6 5	8e/J	.	16a/	.	(16a\LL	-ja
.	.	.	.	16g/JJ	.	16g\JJ)	.
8D\L	#	8A/L	.	(16f#X/LL	.	(16f#X\LL	er-
.	.	.	.	16g/JJ	.	16g\JJ)	.
8E\	.	(16f#X/L	.	4.a/)	.	4.a\	-go
.	.	16e/JJ)	.	.	.	.	.
8F#X\	6	8d/L	.	.	.	.	.
8D\J	.	8f#X/J	.	.	.	.	.
=18	=18	=18	=18	=18	=18	=18	=18
8G\L	.	8g/L	.	(32b/KLL	.	(32b\KLL	ad-
.	.	.	.	16.g/)	.	16.g\JJ)	.
8A\	6|	8f#X/	.	(32cc/K	.	(32cc\KLL	-vo-
.	.	.	.	16.a/JJ)	.	16.a\JJ)	.
8B\	6	8d/	.	(32dd/KLL	.	(32dd\KLL	-ca-
.	.	.	.	16.b/)	.	16.b\JJ)	.
8c\J	6 5	8e/J	.	(32a/K	.	(32a\KLL	-ta
.	.	.	.	16.g/JJ)	.	16.g\JJ)	.
8d\L	#	(16f#X/LL	.	(16f#X/LL	.	(32f#X/KLL	nos-
.	.	.	.	.	.	16.e/JJ)	.
.	.	16g/J)	.	16e/JJ)	.	.	.
16d\L	.	8a/J	.	4d/	.	4d/	-tra
16c\JJ	.	.	.	.	.	.	.
!	!	!LO:TX:t=P:problem:mixed beam	!	!	!	!	!
16B\LL	6	8d/L	.	.	.	.	.
!	!	!	!	!	!	!LO:SIC:v:t=custos ee	!
16A\J	.	.	.	.	.	.	.
8G\J	.	8b/J	.	(32gg\KLL	.	8r	.
.	.	.	.	16.dd\JJ)	.	.	.
=19	=19	=19	=19	=19	=19	=19	=19
8c\L	3	8g/	.	8ee\	.	8ee\	il-
8B\	.	4g/	.	4ee\	.	8.ee\L	-los
8c\	.	.	.	.	.	.	.
!	!	!	!	!	!	!LO:TUP:a:problem:klamra łukowa	!
.	.	.	.	.	.	24ff#X\L	.
.	.	.	.	.	.	24gg\	.
8A\J	.	8g/	.	8ee\	.	.	.
.	.	.	.	.	.	24aa\JJ	.
.	.	.	.	.	.	16qqee/	.
.	.	.	.	.	.	(16dd\LL	tu-
8B\L	6	8g/	.	8dd\	.	16cc\JJ)	.
.	.	.	.	.	.	4.dd\	-os
8A\	.	4g/	.	4dd\	.	.	.
8B\	.	.	.	.	.	.	.
8G\J	.	8g/	.	8dd\	.	.	.
!	!	!	!	!	!	!LO:N:vis=8	!
.	.	.	.	.	.	16gg\	mi-
=20	=20	=20	=20	=20	=20	=20	=20
.	.	.	.	.	.	8qqdd/	.
8A\L	7	8g/	.	8cc\	.	8.cc\	-se-
8G\	.	4g/	.	4cc\	.	.	.
.	.	.	.	.	.	16b\	-ri-
8A\	.	.	.	.	.	8cc\	-cor-
!	!	!	!	!	!	!	!
8D\J	7 #	8f#X/	.	8cc\	.	8dd\	-des
!LO:TX:t=P:problem:mixed beam	!	!	!	!	!	!	!
.	.	.	.	.	.	(8qqcc/	.
!	!	!	!	!LO:LB:g=original	!	!	!
8G\L	.	(16g/LL	.	(16b\LL	.	8.b\)	o-
.	.	16a/JJ)	.	16cc\JJ)	.	.	.
8GG\	.	4b/	.	4dd\	.	.	.
!	!	!	!	!	!	!LO:LB:g=original	!
.	.	.	.	.	.	16a\	-cu-
8G\	3_	.	.	.	.	8g/	-los
8F\J	.	8g/	.	32gg\KLL	.	8r	.
.	.	.	.	16.b\JJ	.	.	.
=21	=21	=21	=21	=21	=21	=21	=21
8E\L	6	8g/	.	8cc\	.	8r	.
8E\	.	4g/	.	4cc\	.	8g/	ad
8E\	.	.	.	.	.	8cc\	nos
!	!	!	!	!	!	!	!
8E\J	5	8g/	.	8cc\	.	8b\	con-
8F\L	3	8a/	.	8cc\	.	8a\L	-ver-
8F\	.	4a/	.	4dd\	.	(16b\L	.
.	.	.	.	.	.	16cc\JJ)	.
.	.	.	.	.	.	(<16qqb/LL	.
.	.	.	.	.	.	16qqcc/JJ	.
8F#X\	6	.	.	.	.	8dd\L)	.
8F#\J	5	8a/	.	8dd\	.	8cc\J	.
!LO:LB:g=original	!LO:LB:g=original	!	!	!	!	!	!
=22	=22	=22	=22	=22	=22	=22	=22
8G\L	3	8b/	.	8dd\	.	8b\L	.
8G\	.	4b/	.	4ee\	.	(16cc\L	.
.	.	.	.	.	.	16dd\JJ)	.
.	.	.	.	.	.	(<16qqcc/LL	.
.	.	.	.	.	.	16qqdd/JJ	.
8G#X\	6	.	.	.	.	8ee\L)	.
8G#\J	5	8b/	.	8ee\	.	8dd\J	.
8A\L	3	8cc\L	.	8ee\	.	16cc\LL	.
.	.	.	.	.	.	16a\J	.
8A\	.	8cc\	.	4ee\	.	[8ee\J	.
8G#X\	6	8b\	.	.	.	16ee\LL]	.
.	.	.	.	.	.	16dd\	.
8G#\J	.	8b\J	.	8ee\	.	16cc\	.
.	.	.	.	.	.	16b\JJ	.
=23	=23	=23	=23	=23	=23	=23	=23
8A\L	3	8cc\L	.	8ee\	.	16cc\LL	.
.	.	.	.	.	.	16a\J	.
8A\	.	8cc\	.	4ee\	.	[8ee\J	.
8G#X\	6	8b\	.	.	.	16ee\LL]	.
.	.	.	.	.	.	16dd\	.
8G#\J	.	8b\J	.	8ee\	.	16cc\	.
.	.	.	.	.	.	16b\JJ	.
!LO:TX:t=P:problem:mixed beam	!	!	!	!	!	!	!
8A\L	3	4cc\	.	4ee\	.	16cc\LL	.
.	.	.	.	.	.	16aa\	.
8D\	.	.	.	.	.	16gg#X\	.
.	.	.	.	.	.	16aa\JJ	.
8E\	4	4r	.	4r	.	8cc\L	.
!	!	!	!	!	!	!LO:TX:a:t=t-	!
8EE\J	#3	.	.	.	.	8b\J	.
=24	=24	=24	=24	=24	=24	=24	=24
!LO:TX:t=P:problem:mixed beam	!	!	!	!	!	!	!
8AA\L	.	8r	.	8r	.	4a\	-te
!	!	!	!LO:DY:t=for.	!	!LO:DY:t=forte.	!	!
8A\	.	[8ee\	f	[8ee\	f	.	.
8E\	#	16ee\LL]	.	16ee\LL]	.	4r	.
.	.	16dd\	.	16dd\	.	.	.
8G#X\J	6	16cc\	.	16cc\	.	.	.
.	.	16b\JJ	.	16b\JJ	.	.	.
8A\L	.	16cc\LL	.	16cc\LL	.	2r	.
.	.	16aa\J	.	16aa\J	.	.	.
8c\	6	[8ee\J	.	[8ee\J	.	.	.
8E\	#	16ee\LL]	.	16ee\LL]	.	.	.
.	.	16dd\	.	16dd\	.	.	.
8G#X\J	6	16cc\	.	16cc\	.	.	.
.	.	16b\JJ	.	16b\JJ	.	.	.
!	!	!	!	!	!	!LO:LB:g=original	!
=25	=25	=25	=25	=25	=25	=25	=25
!LO:TX:t=P:problem:mixed beam	!	!	!	!	!	!	!
8A\L	.	16cc\LL	.	16cc\LL	.	1r	.
.	.	16aa\	.	16aa\	.	.	.
8D\	6 5	16ff\	.	16ff\	.	.	.
.	.	16dd\JJ	.	16dd\JJ	.	.	.
8E\	4	8cc\L	.	8cc\L	.	.	.
!	!	!LO:TX:a:t=t-	!	!LO:TX:a:t=t-	!	!	!
8EE\J	#3	8b\J	.	8b\J	.	.	.
!LO:TX:t=P:problem:mixed beam	!	!	!	!LO:TX:t=P:problem:mixed beam	!	!	!
8AA\L	.	8a/L	.	8a\L	.	.	.
8A\	.	8A/J	.	8A\J	.	.	.
8Gn\	.	4r	.	4r	.	.	.
8F\J	.	.	.	.	.	.	.
=26	=26	=26	=26	=26	=26	=26	=26
!	!	!	!	!	!LO:DY:t=pia.	!	!
8r	.	8r	.	8cc\	p	8cc\	il-
!	!	!	!LO:DY:t=pia.	!	!	!	!
8E\L	6	8g/L	p	4cc\	.	4.cc\	-los
8BB\	.	8e/	.	.	.	.	.
8E\J	.	8g/J	.	(32gg\KLL	.	.	.
.	.	.	.	16.cc\JJ)	.	.	.
8F\L	6	8a/L	.	(32dd\KLL	.	(16dd\LL	tu-
.	.	.	.	16.b\JJ)	.	.	.
.	.	.	.	.	.	16b\JJ)	.
8E\	6	8g/	.	4cc\	.	4cc\	-os
8C\	.	8e/	.	.	.	.	.
8E\J	.	8g/J	.	(32gg\KLL	.	8cc\	mi-
.	.	.	.	16.cc\JJ)	.	.	.
=27	=27	=27	=27	=27	=27	=27	=27
8F\L	6	8a/L	.	(32dd\KLL	.	(16dd\LL	-se-
.	.	.	.	16.b\JJ)	.	.	.
.	.	.	.	.	.	16b\JJ)	.
8E\	6	8g/	.	4cc\	.	8cc\	-ri-
8C\	.	8e/	.	.	.	8cc\	-cor-
8E\J	.	8g/J	.	(32gg\KLL	.	8cc\	-des
!	!	!	!	!LO:SIC:v:t=custos dd	!	!	!
.	.	.	.	16.cc\JJ)	.	.	.
!	!	!	!	!LO:LB:g=original	!	!	!
8F\L	6	8a/L	.	(16dd\LL	.	16dd\	o-
.	.	.	.	16b\J	.	16b\	-cu-
8E\	6	8g/	.	8cc\J)	.	8cc\	-los
8C\	.	8e/	.	8r	.	8r	.
8E\J	.	8g/J	.	8cc\	.	8g\	ad
=28	=28	=28	=28	=28	=28	=28	=28
8r	.	8r	.	8cc\L	.	(4a\	nos
!LO:TX:t=P:problem:mixed beam	!	!	!	!	!	!	!
8F\L	5	8b/L	.	8cc\	.	.	.
8FF\	.	8b/	.	8dd\	.	32a\KLL)	.
.	.	.	.	.	.	16.ff\JJ	.
8F\J	6	8b/J	.	8dd\J	.	8ee\	con-
!	!	!	!	!	!	!LO:LB:g=original	!
8r	.	8r	.	8dd\L	.	(4cc\	-ver-
!LO:TX:t=P:problem:mixed beam	!	!	!	!	!	!	!
8G\L	4	8cc\L	.	8dd\	.	.	.
8GG\	3	8b\	.	8ee\	.	32b-X\KLL)	.
.	.	.	.	.	.	16.gg\J	.
8G\J	6	8b\J	.	8ee\J	.	8ee\J	.
!LO:LB:g=original	!	!	!	!	!	!	!
=29	=29	=29	=29	=29	=29	=29	=29
8r	.	8r	.	8ee\L	.	(4dd\	.
!LO:TX:t=P:problem:mixed beam	!	!	!	!	!	!	!
8A\L	4	8dd\L	.	8ee\	.	.	.
8AA\	3	8cc\	.	8ff\	.	32cc\KLL)	.
.	.	.	.	.	.	16.aa\J	.
!	!	!LO:SIC:v:t=custos ee	!	!	!	!	!
8A\J	6	8cc\J	.	8ff\J	.	8ff\J	.
8r	.	8r	.	8ff\L	.	(4ee\	.
!LO:TX:t=P:problem:mixed beam	!	!	!	!	!	!	!
!	!	!LO:LB:g=original	!	!	!	!	!
8B\L	4	8ee\L	.	8ff\	.	.	.
8BB\	3	8dd\	.	8gg\	.	16dd\LL)	.
.	.	.	.	.	.	16gg\	.
8B\J	6	8dd\J	.	8gg\J	.	(16ff\	.
.	.	.	.	.	.	16dd\JJ)	.
=30	=30	=30	=30	=30	=30	=30	=30
!LO:TX:t=P:problem:mixed beam	!	!	!	!	!	!	!
8c\L	3	8ee\L	.	8gg\L	.	(16ee\LL	.
.	.	.	.	.	.	16cc\J)	.
8F\	6 5	8a\J	.	8ff\J	.	8dd\J	.
!	!	!LO:TX:a:t=t-	!	!LO:TX:a:t=t-	!	!LO:TX:a:t=t-	!
.	.	8qqcc/	.	8qqee/	.	8qqcc/	.
8G\	4	4b\	.	4dd\	.	4b\	.
8GG\J	3	.	.	.	.	.	.
8C\L	.	8cc\L	.	8cc\L	.	4cc\	-te
!	!	!	!LO:DY:t=for.	!	!LO:DY:t=forte.	!	!
8D\	.	(32gg\KL	f	(32gg\KL	f	.	.
.	.	16.b\JJ)	.	16.b\JJ)	.	.	.
!	!	!LO:TX:t=P:problem:mixed beam	!	!LO:TX:t=P:problem:mixed beam	!	!	!
8E\	6	8cc\L	.	8cc\L	.	8r	.
!	!	!	!LO:DY:t=pia.	!	!LO:DY:t=pia.	!	!
8C\J	.	[8c\J	p	8g\J	p	8g/	ad
=31	=31	=31	=31	=31	=31	=31	=31
!LO:TX:t=P:problem:mixed beam	!	!	!	!	!	!	!
8F/L	5	8c/]	.	8a/	.	(16a\LL	nos
.	.	.	.	.	.	16f\JJ)	.
8FF/	6	4d/	.	8r	.	(16e/LL	con-
.	.	.	.	.	.	16d/JJ)	.
8GG/	5	.	.	8b/	.	(16b\LL	-ver-
.	.	.	.	.	.	16g\	.
8G/J	6	4e/	.	8r	.	16f\	.
.	.	.	.	.	.	16e\JJ)	.
!LO:TX:t=P:problem:mixed beam	!	!	!	!	!	!	!
!	!	!	!	!	!	!LO:LB:g=original	!
8A\L	5	.	.	8cc\	.	16cc\LL	.
.	.	.	.	.	.	16a\	.
8AA\	6	4f/	.	8r	.	16g\	.
.	.	.	.	.	.	16f\JJ	.
8BB\	5	.	.	8dd\	.	16dd\LL	.
.	.	.	.	.	.	16b\	.
8B\J	6	[8g/	.	8r	.	16a\	.
.	.	.	.	.	.	16g\JJ	.
=32	=32	=32	=32	=32	=32	=32	=32
8c\L	3	8g/]	.	(32ee\KLL	.	(32ee\KLL	.
.	.	.	.	16.cc\JJ)	.	16.cc\JJ)	.
8B\	6	4g/	.	4dd\	.	4dd\	.
8G\	.	.	.	.	.	.	.
8B\J	.	8g/	.	(32gg\KLL	.	(32gg\KLL	.
.	.	.	.	16.dd\JJ)	.	16.dd\JJ)	.
8c\L	3	8g/	.	(32ee\KLL	.	(32ee\KLL	.
.	.	.	.	16.cc\JJ)	.	16.cc\JJ)	.
8B\	6	4g/	.	4dd\	.	4dd\	.
8G\	.	.	.	.	.	.	.
8B\J	.	8g/	.	(32gg\KLL	.	(32gg\KLL	.
.	.	.	.	16.dd\JJ)	.	16.dd\JJ)	.
=33	=33	=33	=33	=33	=33	=33	=33
!LO:TX:t=P:problem:mixed beam	!	!	!	!	!	!	!
8c\L	.	8g/L	.	(32ee\KLL	.	(32ee\KLL	.
.	.	.	.	16.cc\JJ)	.	16.cc\)	.
8F\	6 5	8a/J	.	(32aa\KLL	.	(32aa\K	.
.	.	.	.	16.ff\JJ)	.	16.ff\JJ)	.
8G\	4	8cc\L	.	8ee\L	.	8ee\L	.
!	!	!LO:TX:a:t=t-	!	!LO:TX:a:t=t-	!	!	!
8GG\J	3	8b\J	.	8dd\J	.	8dd\J	.
!	!	!LO:TX:t=P:problem:mixed beam	!	!LO:TX:t=P:problem:mixed beam	!	!LO:TX:a:t=t-	!
8D\L	.	8cc/L	.	8cc\L	.	4cc\	-te
8E\	.	(32c/KL	.	(32g\KL	.	.	.
.	.	16.G/JJ)	.	16.B\JJ)	.	.	.
8F\	6	8A/	.	8c/	.	8r	.
!	!	!	!	!	!	!LO:SIC:v:t=custos ff	!
8D\J	.	8r	.	8r	.	8gg\	ad
!	!	!	!	!	!	!LO:LB:g=original	!
=34	=34	=34	=34	=34	=34	=34	=34
!LO:TX:t=P:problem:mixed beam	!	!LO:TX:a:t=1	!	!	!	!	!
!	!	!	!	!LO:SIC:v:t=custos cc	!	!	!
8A\L	6	1r	.	1r	.	(32ff\KLL	nos
.	.	.	.	.	.	16.ee\JJ)	.
8F\	6 5	.	.	.	.	(32dd\KLL	con-
.	.	.	.	.	.	16.cc\JJ)	.
8G\	4	.	.	.	.	8g\L	-ver-
!	!	!	!	!	!	!LO:TX:a:t=t-	!
8GG\J	3	.	.	.	.	8b\J	.
8C/L	.	.	.	.	.	4cc\	-te.
8GG/J	.	.	.	.	.	.	.
4CC/	.	.	.	.	.	4r	.
!	!	!	!	!LO:LB:g=original	!	!	!
=35	=35	=35	=35	=35	=35	=35	=35
!	!	!	!LO:DY:t=for.	!	!LO:DY:t=forte.	!	!
8C\L	.	[4cc\	f	[4cc\	f	1r	.
8D\	.	.	.	.	.	.	.
8E\	6	16cc\LL]	.	16cc\LL]	.	.	.
.	.	16ee\	.	16ee\	.	.	.
8F\J	6 5	(16dd\	.	(16dd\	.	.	.
.	.	16cc\JJ)	.	16cc\JJ)	.	.	.
8G\L	.	(16b\LL	.	(16b\LL	.	.	.
.	.	16cc\JJ)	.	16cc\JJ)	.	.	.
8A\	.	4.dd\	.	4.dd\	.	.	.
8B\	6	.	.	.	.	.	.
8G\J	.	.	.	.	.	.	.
=36	=36	=36	=36	=36	=36	=36	=36
8C\L	.	(32ee\KLL	.	(32ee\KLL	.	1r	.
.	.	16.cc\)	.	16.cc\)	.	.	.
8D\	6	(32ff\K	.	(32ff\K	.	.	.
.	.	16.dd\JJ)	.	16.dd\JJ)	.	.	.
8E\	6	(32gg\KLL	.	(32gg\KLL	.	.	.
.	.	16.ee\)	.	16.ee\)	.	.	.
8F\J	6 5	(32dd\K	.	(32dd\K	.	.	.
.	.	16.cc\JJ)	.	16.cc\JJ)	.	.	.
8G\L	3	(16b/LL	.	(16b/LL	.	.	.
.	.	16a/J	.	16a/J	.	.	.
16G\L	.	8g/J)	.	8g/J)	.	.	.
16F\JJ	.	.	.	.	.	.	.
16E\LL	6	8r	.	8r	.	.	.
16D\J	.	.	.	.	.	.	.
!	!	!LO:SIC:v:t=custos a	!	!	!	!	!
8C\J	.	8g/	.	8g/	.	.	.
!LO:LB:g=original	!	!	!	!	!	!	!
!	!	!LO:LB:g=original	!	!	!	!	!
=37	=37	=37	=37	=37	=37	=37	=37
!LO:TX:t=P:problem:mixed beam	!	!	!	!	!	!	!
8F/L	5	16a/LL	.	16a/LL	.	1r	.
.	.	16f/	.	16f/	.	.	.
8FF/	6	16e/	.	16e/	.	.	.
.	.	16d/JJ	.	16d/JJ	.	.	.
8GG/	5	16b/LL	.	16b/LL	.	.	.
.	.	16g/	.	16g/	.	.	.
8G/J	6	16f/	.	16f/	.	.	.
.	.	16e/JJ	.	16e/JJ	.	.	.
!LO:TX:t=P:problem:mixed beam	!	!	!	!	!	!	!
8A\L	5	16cc\LL	.	16cc\LL	.	.	.
.	.	16a\	.	16a\	.	.	.
8AA\	6	16g\	.	16g\	.	.	.
.	.	16f\JJ	.	16f\JJ	.	.	.
8BB\	5	16dd\LL	.	16dd\LL	.	.	.
.	.	16b\	.	16b\	.	.	.
8B\J	6	16a\	.	16a\	.	.	.
.	.	16g\JJ	.	16g\JJ	.	.	.
=38	=38	=38	=38	=38	=38	=38	=38
8c\L	3	(32ee\KLL	.	(32ee\KLL	.	1r	.
.	.	16.cc\JJ)	.	16.cc\JJ)	.	.	.
8B\	6	4dd\	.	4dd\	.	.	.
8G\	.	.	.	.	.	.	.
8B\J	.	(32gg\KLL	.	(32gg\KLL	.	.	.
.	.	16.dd\JJ)	.	16.dd\JJ)	.	.	.
8c\L	3	(32ee\KLL	.	(32ee\KLL	.	.	.
.	.	16.cc\JJ)	.	16.cc\JJ)	.	.	.
8B\	6	4dd\	.	4dd\	.	.	.
8G\	.	.	.	.	.	.	.
8B\J	.	(32gg\KLL	.	(32gg\KLL	.	.	.
.	.	16.ee\JJ)	.	16.ee\JJ)	.	.	.
=39	=39	=39	=39	=39	=39	=39	=39
!LO:TX:t=P:problem:mixed beam	!	!	!	!	!	!	!
8c\L	3	(32ee\KLL	.	(32ee\KLL	.	1r	.
.	.	16.cc\)	.	16.cc\)	.	.	.
8F\	6 5	(32aa\K	.	(32aa\K	.	.	.
.	.	16.ff\JJ)	.	16.ff\JJ)	.	.	.
8G\	4	8ee\L	.	8ee\L	.	.	.
!	!	!LO:TX:a:t=t-	!	!LO:TX:a:t=t-	!	!	!
8GG\J	3	8dd\J	.	8dd\J	.	.	.
8C\L	.	4cc\	.	4cc\	.	.	.
8D\	.	.	.	.	.	.	.
8E\	6	8r	.	8r	.	.	.
8C\J	.	8g/	.	8g/	.	.	.
=40	=40	=40	=40	=40	=40	=40	=40
!LO:TX:t=P:problem:mixed beam	!	!	!	!	!	!	!
8F\L	.	16a/LL	.	16a/LL	.	1r	.
.	.	(16f/	.	16f/	.	.	.
8F#X\	6 5	16e/	.	16e/	.	.	.
.	.	16d/JJ)	.	16d/JJ	.	.	.
!	!	!LO:TX:t=P:problem:mixed beam	!	!LO:TX:t=P:problem:mixed beam	!	!	!
8G\	4	8G/L	.	8G/L	.	.	.
!	!	!LO:TX:a:t=t-	!	!LO:TX:a:t=t-	!	!	!
8GG\J	3	8b/J	.	8b/J	.	.	.
!	!	!LO:TX:t=P:problem:mixed beam	!	!LO:TX:t=P:problem:mixed beam	!	!	!
4C/	.	8cc/L	.	8cc/L	.	.	.
.	.	8c/J	.	8c/J	.	.	.
4r;	.	4r;	.	4r;	.	.	.
==	==	==	==	==	==	==	==
*-	*-	*-	*-	*-	*-	*-	*-
!!!system-decoration: [(s1)][(s2,s3)]s4
!!!AIN: 1 organ 1 soprn 2 violn
!!!ENC: Tomasz Grochalski
!!!END: 2021-02-07
!!!ENC: Jan Barakat
!!!END: 2022-01-12
!!!RDF**kern: > = above
!!!RDF**kern: < = below
